notebook/vault/Състезания/3/10/Resources/2025_3.svg

<?xml version="1.0" encoding="UTF-8"?>
<svg xmlns="http://www.w3.org/2000/svg" xmlns:xlink="http://www.w3.org/1999/xlink" width="595.32" height="460" viewBox="0 0 595.32 460">
<defs>
<filter id="filter-remove-color" x="0%" y="0%" width="100%" height="100%">
<feColorMatrix color-interpolation-filters="sRGB" values="0 0 0 0 1 0 0 0 0 1 0 0 0 0 1 0 0 0 1 0" />
</filter>
<filter id="filter-color-to-alpha" x="0%" y="0%" width="100%" height="100%">
<feColorMatrix color-interpolation-filters="sRGB" values="0 0 0 0 1 0 0 0 0 1 0 0 0 0 1 0.2126 0.7152 0.0722 0 0"/>
</filter>
<g>
<g id="glyph-25-0">
<path d="M 4.984375 -1.34375 C 4.546875 -0.578125 4.46875 -0.5 4.265625 -0.5 C 4 -0.5 3.75 -0.921875 3.28125 -2.09375 C 3.21875 -2.265625 3.046875 -2.703125 2.84375 -3.1875 C 4.625 -4.8125 4.96875 -5.0625 5.546875 -5.09375 L 5.546875 -5.296875 L 3.34375 -5.296875 L 3.34375 -5.09375 C 3.859375 -5.078125 4 -5.03125 4 -4.875 C 4 -4.625 3.40625 -4.03125 2.28125 -3.140625 C 2.109375 -3 1.9375 -2.875 1.765625 -2.734375 L 3.21875 -8.375 L 3.15625 -8.4375 C 2.421875 -8.265625 1.96875 -8.1875 1.28125 -8.109375 L 1.28125 -7.90625 C 1.859375 -7.921875 2.078125 -7.828125 2.09375 -7.59375 C 2.0625 -7.390625 1.984375 -7.0625 1.828125 -6.484375 C 1.78125 -6.3125 1.75 -6.1875 1.71875 -6.078125 L 1.703125 -5.96875 L 0.171875 0 L 1.078125 0 L 1.640625 -2.21875 L 2.15625 -2.625 C 2.34375 -2.078125 2.65625 -1.3125 2.875 -0.875 C 3.265625 -0.09375 3.484375 0.140625 3.828125 0.140625 C 4.3125 0.140625 4.609375 -0.171875 5.15625 -1.21875 Z M 4.984375 -1.34375 "/>
</g>
<g id="glyph-50-1">
<path d="M 8.71875 -0.234375 C 8.15625 -0.265625 8.03125 -0.390625 7.609375 -1.3125 L 4.53125 -8.3125 L 4.28125 -8.3125 L 1.71875 -2.25 C 0.921875 -0.453125 0.78125 -0.265625 0.1875 -0.234375 L 0.1875 0 L 2.625 0 L 2.625 -0.234375 C 2.03125 -0.234375 1.796875 -0.375 1.796875 -0.734375 C 1.796875 -0.890625 1.828125 -1.0625 1.890625 -1.21875 L 2.453125 -2.65625 L 5.6875 -2.65625 L 6.203125 -1.484375 C 6.34375 -1.140625 6.4375 -0.828125 6.4375 -0.65625 C 6.4375 -0.34375 6.21875 -0.25 5.5625 -0.234375 L 5.5625 0 L 8.71875 0 Z M 2.671875 -3.171875 L 4.078125 -6.5625 L 5.515625 -3.171875 Z M 2.671875 -3.171875 "/>
</g>
<g id="glyph-54-0">
<path d="M 1.90625 -4.046875 C 2.640625 -4.046875 2.921875 -4.03125 3.203125 -3.921875 C 4 -3.640625 4.46875 -2.953125 4.46875 -2.09375 C 4.46875 -1.0625 3.765625 -0.265625 2.84375 -0.265625 C 2.5 -0.265625 2.25 -0.359375 1.796875 -0.65625 C 1.4375 -0.875 1.21875 -0.953125 1 -0.953125 C 0.71875 -0.953125 0.53125 -0.78125 0.53125 -0.53125 C 0.53125 -0.09375 1.0625 0.171875 1.9375 0.171875 C 2.890625 0.171875 3.875 -0.140625 4.46875 -0.65625 C 5.046875 -1.15625 5.359375 -1.859375 5.359375 -2.6875 C 5.359375 -3.328125 5.15625 -3.890625 4.8125 -4.28125 C 4.546875 -4.546875 4.3125 -4.6875 3.78125 -4.921875 C 4.625 -5.5 4.9375 -5.953125 4.9375 -6.625 C 4.9375 -7.625 4.15625 -8.296875 3 -8.296875 C 2.375 -8.296875 1.828125 -8.09375 1.375 -7.703125 C 1 -7.359375 0.828125 -7.046875 0.5625 -6.3125 L 0.75 -6.265625 C 1.25 -7.171875 1.796875 -7.5625 2.59375 -7.5625 C 3.40625 -7.5625 3.953125 -7.03125 3.953125 -6.25 C 3.953125 -5.8125 3.765625 -5.375 3.453125 -5.0625 C 3.078125 -4.6875 2.734375 -4.5 1.890625 -4.21875 Z M 1.90625 -4.046875 "/>
</g>
<g id="glyph-56-0">
<path d="M 6.28125 -1.6875 L 6.109375 -1.75 C 5.625 -1.03125 5.484375 -0.953125 4.859375 -0.9375 L 1.6875 -0.9375 L 3.921875 -3.09375 C 5.09375 -4.234375 5.609375 -5.171875 5.609375 -6.125 C 5.609375 -7.359375 4.546875 -8.296875 3.15625 -8.296875 C 2.4375 -8.296875 1.75 -8.03125 1.25 -7.546875 C 0.828125 -7.125 0.640625 -6.734375 0.40625 -5.859375 L 0.6875 -5.796875 C 1.21875 -7 1.6875 -7.390625 2.609375 -7.390625 C 3.734375 -7.390625 4.46875 -6.6875 4.46875 -5.65625 C 4.46875 -4.6875 3.859375 -3.5625 2.75 -2.46875 L 0.390625 -0.140625 L 0.390625 0 L 5.5625 0 Z M 6.28125 -1.6875 "/>
</g>
<g id="glyph-58-0">
<path d="M 0.25 -4.96875 C 0.390625 -4.96875 0.484375 -4.96875 0.609375 -4.96875 C 1.078125 -4.96875 1.203125 -4.765625 1.375 -3.625 C 1.5 -2.765625 1.640625 -0.953125 1.640625 -0.203125 C 1.640625 0.140625 1.640625 0.21875 1.75 0.21875 C 2.046875 0.21875 3.140625 -1.03125 4.390625 -2.828125 C 4.8125 -3.453125 5.125 -4.234375 5.125 -4.703125 C 5.125 -5.09375 4.8125 -5.4375 4.453125 -5.4375 C 4.171875 -5.4375 4 -5.265625 4 -5.015625 C 4 -4.8125 4.078125 -4.671875 4.296875 -4.46875 C 4.453125 -4.328125 4.515625 -4.21875 4.515625 -4.09375 C 4.515625 -3.515625 3.734375 -2.171875 2.859375 -1.25 L 2.484375 -0.859375 C 2.40625 -2.59375 2.328125 -3.234375 2.171875 -4.15625 C 1.9375 -5.40625 1.9375 -5.4375 1.828125 -5.4375 C 1.765625 -5.4375 1.6875 -5.421875 1.59375 -5.375 C 1.390625 -5.328125 0.65625 -5.1875 0.25 -5.125 Z M 0.25 -4.96875 "/>
</g>
</g>
<image id="source-6" x="0" y="0" width="2" height="2" xlink:href="data:image/png;base64,iVBORw0KGgoAAAANSUhEUgAAAAIAAAACCAIAAAD91JpzAAAABmJLR0QA/wD/AP+gvaeTAAAAC0lEQVQImWNgQAYAAA4AAbGa6gYAAAAASUVORK5CYII="/>
<clipPath id="clip-1">
<path clip-rule="nonzero" d="M 519 446.042969 L 525.910156 446.042969 L 525.910156 452 L 519 452 Z M 519 446.042969 "/>
</clipPath>
<image id="source-13" x="0" y="0" width="468" height="115" xlink:href="data:image/png;base64,iVBORw0KGgoAAAANSUhEUgAAAdQAAABzCAAAAAAEIqxSAAAAAmJLR0QA/4ePzL8AAACcSURBVHic7djBCcAgEEVBDem/ZVOC6yHEb2bOexAeC2prAAAAAAAAAAAAAAAAAAAAAAAAAAAAAAAAAAAAAAAAAAAAAAAAAPB74+sD8IIha5w+GxiVIbZSiiprlnmtUR1kF+WosuboK/cgWTMsRZU1w7U27n2T4F4ZtqcZXJQOVN5USXP4fDhQaVMlzVKIKulpvGEAAAAAAAAAOMYDyewNGuRusHIAAAAASUVORK5CYII="/>
<mask id="mask-1">
<g filter="url(#filter-remove-color)">
<use xlink:href="#source-13" filter="url(#filter-color-to-alpha)" transform="matrix(0.105259, 0, 0, 0.108362, 518.702646, 439.804518)"/>
</g>
</mask>
</defs>
<g fill="rgb(0%, 0%, 0%)">
<use xlink:href="#glyph-25-0" x="489.545244" y="391.313127"/>
</g>
<g fill="rgb(0%, 0%, 0%)">
<use xlink:href="#glyph-54-0" x="532.558827" y="407.58176"/>
</g>
<g fill="rgb(0%, 0%, 0%)">
<use xlink:href="#glyph-25-0" x="538.311155" y="407.58176"/>
</g>
<g fill="rgb(0%, 0%, 0%)">
<use xlink:href="#glyph-50-1" x="489.09538" y="425.684857"/>
</g>
<g fill="rgb(0%, 0%, 0%)">
<use xlink:href="#glyph-56-0" x="484.644188" y="412.975599"/>
</g>
<g fill="rgb(0%, 0%, 0%)">
<use xlink:href="#glyph-25-0" x="490.594984" y="412.975599"/>
</g>
<g fill="rgb(0%, 0%, 0%)">
<use xlink:href="#glyph-58-0" x="517.713069" y="457.346927"/>
</g>
<g clip-path="url(#clip-1)">
<g mask="url(#mask-1)">
<use xlink:href="#source-6" transform="matrix(24.630694, 0, 0, 6.230822, 518.702646, 439.804518)"/>
</g>
</g>
<g stroke="rgb(0%, 0%, 0%)" transform="matrix(0.998859, 0, 0, -0.998859, 0, 841.399756)">
<path fill="none" stroke-width="1.5" d="M 479.648813 466.768248 L 550.49918 466.768248 "/>
<path fill="none" stroke-width="0.75" d="M 500.821407 461.168108 C 499.311872 460.671448 497.798427 460.170877 498.240337 459.670306 C 498.670515 459.169734 503.398566 458.669163 503.398566 458.168592 C 503.398566 457.671932 498.240337 457.171361 498.240337 456.670789 C 498.240337 456.170218 503.398566 455.669647 503.398566 455.169076 C 503.398566 454.668505 498.240337 454.171845 498.240337 453.671273 C 498.240337 453.170702 503.398566 452.670131 503.398566 452.16956 C 503.398566 451.668989 498.240337 451.168418 498.240337 450.671757 C 498.240337 450.171186 503.398566 449.670615 503.398566 449.170044 C 503.398566 448.669473 498.670515 448.168902 498.240337 447.668331 C 497.798427 447.17167 499.311872 446.678921 500.821407 446.170528 "/>
<path fill="none" stroke-width="0.75" d="M 500.700175 466.819087 L 500.700175 461.168108 "/>
<path fill="none" stroke-width="0.75" d="M 500.899621 425.568898 L 500.899621 411.419942 "/>
<path fill="none" stroke-width="0.75" d="M 529.119318 446.268296 C 527.609783 445.771635 526.100249 445.271064 526.538248 444.770493 C 526.968427 444.269922 531.700388 443.769351 531.700388 443.26878 C 531.700388 442.768209 526.538248 442.271548 526.538248 441.770977 C 526.538248 441.270406 531.700388 440.769835 531.700388 440.269264 C 531.700388 439.768693 526.538248 439.268122 526.538248 438.771461 C 526.538248 438.27089 531.700388 437.770319 531.700388 437.269748 C 531.700388 436.769177 526.538248 436.268606 526.538248 435.771945 C 526.538248 435.271374 531.700388 434.770803 531.700388 434.270232 C 531.700388 433.769661 526.968427 433.26909 526.538248 432.768518 C 526.100249 432.271858 527.609783 431.779108 529.119318 431.270716 "/>
<path fill="none" stroke-width="0.75" d="M 529.099765 466.169909 L 529.099765 446.319135 "/>
<path fill="none" stroke-width="0.75" d="M 529.201443 431.368484 L 529.201443 411.521621 "/>
<path fill-rule="evenodd" fill="rgb(100%, 100%, 100%)" stroke-width="0.75" d="M 500.848782 411.099264 C 500.848782 418.920688 507.199778 425.271684 515.021202 425.271684 C 522.850447 425.271684 529.201443 418.920688 529.201443 411.099264 C 529.201443 403.270019 522.850447 396.919023 515.021202 396.919023 C 507.199778 396.919023 500.848782 403.270019 500.848782 411.099264 Z M 514.250792 411.099264 C 514.250792 410.669086 514.598845 410.321032 515.021202 410.321032 C 515.45138 410.321032 515.799433 410.669086 515.799433 411.099264 C 515.799433 411.521621 515.45138 411.869674 515.021202 411.869674 C 514.598845 411.869674 514.250792 411.521621 514.250792 411.099264 Z M 514.250792 411.099264 "/>
<path fill="none" stroke-width="0.75" d="M 500.95046 446.170528 L 500.95046 440.519549 "/>
<path fill="none" stroke-width="0.75" d="M 500.829228 440.570389 C 502.338763 440.069818 503.848298 439.569246 503.410298 439.068675 C 502.98012 438.568104 498.248159 438.071444 498.248159 437.570873 C 498.248159 437.070302 503.410298 436.56973 503.410298 436.069159 C 503.410298 435.568588 498.248159 435.071928 498.248159 434.571357 C 498.248159 434.070786 503.410298 433.570214 503.410298 433.069643 C 503.410298 432.569072 498.248159 432.068501 498.248159 431.571841 C 498.248159 431.071269 503.410298 430.570698 503.410298 430.070127 C 503.410298 429.569556 498.248159 429.068985 498.248159 428.568414 C 498.248159 428.071753 502.98012 427.571182 503.410298 427.070611 C 503.848298 426.57004 502.338763 426.081201 500.829228 425.568898 "/>
<path stroke-width="0.75" d="M 500.770568 422.268257 C 500.148765 422.268257 499.648193 421.771597 499.648193 421.138061 C 499.648193 420.520169 500.148765 420.019598 500.770568 420.019598 C 501.400192 420.019598 501.900763 420.520169 501.900763 421.138061 C 501.900763 421.771597 501.400192 422.268257 500.770568 422.268257 Z M 500.770568 422.268257 "/>
</g>
<path fill-rule="nonzero" fill="rgb(0%, 0%, 0%)" d="M 514.960938 431.496094 L 514.960938 454.121094 L 513.964844 454.121094 L 513.964844 431.496094 Z M 514.460938 454.121094 L 516.460938 452.125 L 514.460938 458.117188 L 512.464844 452.125 Z M 514.460938 454.121094 "/>
</svg>

<svg xmlns="http://www.w3.org/2000/svg" xmlns:xlink="http://www.w3.org/1999/xlink" width="595.32" height="460" viewBox="0 0 595.32 460">
  <defs>
    <path id="d" d="M4.98-1.34c-.43.76-.51.84-.71.84-.27 0-.52-.42-.99-1.6-.06-.17-.23-.6-.44-1.09 1.79-1.62 2.13-1.87 2.7-1.9v-.2h-2.2v.2c.52.01.66.06.66.21 0 .25-.6.85-1.72 1.74l-.51.4 1.45-5.63-.06-.07c-.74.17-1.2.25-1.88.33v.2c.58-.01.8.08.81.32-.03.2-.1.53-.26 1.1l-.11.41-.02.11L.17 0h.9l.57-2.22.52-.4c.18.54.5 1.3.71 1.75.4.78.61 1.01.96 1.01.48 0 .78-.31 1.33-1.36Zm0 0"/>
    <path id="f" d="M8.72-.23C8.16-.27 8.03-.4 7.6-1.31l-3.08-7h-.25L1.72-2.25C.92-.45.78-.27.19-.23V0h2.44v-.23c-.6 0-.83-.14-.83-.5q0-.25.1-.49l.55-1.44H5.7l.51 1.18c.14.34.24.65.24.82 0 .32-.22.41-.88.43V0h3.16ZM2.67-3.17l1.4-3.4 1.45 3.4Zm0 0"/>
    <path id="e" d="M1.9-4.05c.74 0 1.02.02 1.3.13.8.28 1.27.97 1.27 1.83 0 1.03-.7 1.82-1.63 1.82-.34 0-.59-.09-1.04-.39-.36-.21-.58-.3-.8-.3-.28 0-.47.18-.47.43 0 .44.53.7 1.4.7.96 0 1.95-.31 2.54-.83q.88-.77.89-2.03c0-.64-.2-1.2-.55-1.6-.26-.26-.5-.4-1.03-.63.85-.58 1.16-1.03 1.16-1.7 0-1-.78-1.68-1.94-1.68q-.94 0-1.62.6C1-7.36.83-7.05.56-6.31l.19.04c.5-.9 1.05-1.3 1.84-1.3.82 0 1.36.54 1.36 1.32 0 .44-.18.88-.5 1.19-.37.37-.72.56-1.56.84Zm0 0"/>
    <path id="g" d="m6.28-1.69-.17-.06c-.49.72-.63.8-1.25.81H1.69l2.23-2.15C5.1-4.23 5.61-5.17 5.61-6.12c0-1.24-1.06-2.18-2.45-2.18-.72 0-1.41.27-1.91.75-.42.42-.6.82-.84 1.7l.28.05c.53-1.2 1-1.6 1.92-1.6 1.12 0 1.86.71 1.86 1.74 0 .97-.61 2.1-1.72 3.2L.39-.15V0h5.17Zm0 0"/>
    <path id="h" d="M.25-4.97h.36c.47 0 .6.2.77 1.34.12.86.26 2.68.26 3.43 0 .34 0 .42.11.42.3 0 1.4-1.25 2.64-3.05.42-.62.74-1.4.74-1.87 0-.4-.32-.74-.68-.74-.28 0-.45.17-.45.42 0 .2.08.35.3.55q.22.2.22.38c0 .57-.79 1.92-1.66 2.84l-.38.4a23 23 0 0 0-.3-3.3c-.24-1.26-.24-1.29-.35-1.29a28.23 28.23 0 0 1-1.58.31Zm0 0"/>
    <filter id="a" width="100%" height="100%" x="0%" y="0%">
      <feColorMatrix color-interpolation-filters="sRGB" values="0 0 0 0 1 0 0 0 0 1 0 0 0 0 1 0 0 0 1 0"/>
    </filter>
    <filter id="c" width="100%" height="100%" x="0%" y="0%">
      <feColorMatrix color-interpolation-filters="sRGB" values="0 0 0 0 1 0 0 0 0 1 0 0 0 0 1 0.2126 0.7152 0.0722 0 0"/>
    </filter>
    <image xlink:href="data:image/png;base64,iVBORw0KGgoAAAANSUhEUgAAAAIAAAACCAIAAAD91JpzAAAABmJLR0QA/wD/AP+gvaeTAAAAC0lEQVQImWNgQAYAAA4AAbGa6gYAAAAASUVORK5CYII=" id="k" width="2" height="2" x="0" y="0"/>
    <image xlink:href="data:image/png;base64,iVBORw0KGgoAAAANSUhEUgAAAdQAAABzAQMAAAAbh2HNAAAABlBMVEUAAAD///+l2Z/dAAAAS0lEQVQYGe3BURGAMAwFwUN5rFVSBHQIUwsP/rhdJEmSJEmSJH3u4oVFrsltckWuFpE5msgcm8gcN5E5mlgtYkVuk2tyi9iFpL95AOTaIJ0wx6WXAAAAAElFTkSuQmCC" id="b" width="468" height="115" x="0" y="0"/>
    <clipPath id="i">
      <path d="M519 446.04h6.91V452H519Zm0 0"/>
    </clipPath>
    <mask id="j">
      <g filter="url(#a)">
        <use xlink:href="#b" filter="url(#c)" transform="matrix(.10526 0 0 .10836 518.7 439.8)"/>
      </g>
    </mask>
  </defs>
  <use xlink:href="#d" x="489.55" y="391.31"/>
  <use xlink:href="#e" x="532.56" y="407.58"/>
  <use xlink:href="#d" x="538.31" y="407.58"/>
  <use xlink:href="#f" x="489.1" y="425.68"/>
  <use xlink:href="#g" x="484.64" y="412.98"/>
  <use xlink:href="#d" x="490.59" y="412.98"/>
  <use xlink:href="#h" x="517.71" y="457.35"/>
  <g clip-path="url(#i)" mask="url(#j)">
    <use xlink:href="#k" transform="matrix(24.6307 0 0 6.23082 518.7 439.8)"/>
  </g>
  <g stroke="#000">
    <path fill="none" stroke-width="1.49829" d="M479.1 375.16h70.77"/>
    <path fill="none" stroke-width=".749145" d="M500.25 380.76c-1.5.5-3.02 1-2.58 1.5s5.15 1 5.15 1.5c0 .49-5.15.99-5.15 1.49s5.15 1 5.15 1.5-5.15 1-5.15 1.5 5.15 1 5.15 1.5-5.15 1-5.15 1.5 5.15 1 5.15 1.5-4.72 1-5.15 1.5c-.44.49 1.07.98 2.58 1.49M500.13 375.11v5.65M500.33 416.32v14.13M528.52 395.64c-1.51.5-3.02 1-2.58 1.5s5.15 1 5.15 1.5-5.15 1-5.15 1.5 5.15 1 5.15 1.5-5.15 1-5.15 1.49c0 .5 5.15 1 5.15 1.5s-5.15 1-5.15 1.5 5.15 1 5.15 1.5-4.72 1-5.15 1.5 1.07.98 2.58 1.5M528.5 375.76v19.83M528.6 410.52v19.83"/>
    <path fill="#fff" fill-rule="evenodd" stroke-width=".749145" d="M500.28 430.77a14.16 14.16 0 1 1 28.32.01 14.16 14.16 0 0 1-28.32-.01Zm13.38 0a.78.78 0 1 0 1.55 0 .78.78 0 0 0-1.55 0Zm0 0"/>
    <path fill="none" stroke-width=".749145" d="M500.38 395.74v5.64M500.26 401.33c1.5.5 3.01 1 2.58 1.5s-5.16 1-5.16 1.5 5.16 1 5.16 1.5-5.16 1-5.16 1.5 5.16 1 5.16 1.5-5.16 1-5.16 1.49c0 .5 5.16 1 5.16 1.5s-5.16 1-5.16 1.5 4.73 1 5.16 1.5-1.07.98-2.58 1.5"/>
    <path stroke-width=".749145" d="M500.2 419.61c-.62 0-1.12.5-1.12 1.13s.5 1.12 1.12 1.12 1.13-.5 1.13-1.12-.5-1.13-1.13-1.13Zm0 0"/>
  </g>
  <path d="M514.96 431.5v22.62h-1V431.5Zm-.5 22.62 2-2-2 6-2-6Zm0 0"/>
</svg>
